dist/img/hand_2.svg

<svg width="69" height="78" viewBox="0 0 69 78" fill="none" xmlns="http://www.w3.org/2000/svg">
<path d="M8.54993 52.3816C8.54993 60.4727 11.4781 76.5007 23.1909 75.8843H32.0526C34.6212 76.1411 41.1454 74.3431 46.6936 65.0962C47.9779 63.0413 49.7759 60.8579 52.473 60.0874L63.2611 55.4639C65.316 54.5649 68.7322 51.611 65.9581 46.9875C65.2646 45.8316 62.1052 43.674 54.3994 45.8316L47.4642 46.9875V38.8965L55.17 15.0084C57.4817 9.22903 49.0054 5.76142 46.3083 10.7702L35.5202 37.7405L33.9791 6.14669C33.2085 1.138 24.7321 -0.0180944 23.5762 6.532V36.9699L22.8057 30.8053M11.6322 33.8876V31.9612C12.0175 21.5583 22.8057 23.8701 22.8057 29.6494V30.8053M11.6322 33.8876C11.6322 30.0347 3.54116 26.5671 2 33.8876V47.7581C2.38529 53.1521 11.6322 53.2437 11.6322 48.312M11.6322 33.8876V48.312M11.6322 48.312C13.1734 52.9355 20.4939 53.9227 22.0351 47.7581L22.8057 30.8053" stroke="#353535" stroke-width="3" stroke-linecap="round" stroke-linejoin="round"/>
</svg>

<svg width="69" height="78" fill="none" xmlns="http://www.w3.org/2000/svg"><path d="M8.55 52.382c0 8.09 2.928 24.119 14.64 23.502h8.863c2.568.257 9.092-1.54 14.64-10.788 1.285-2.055 3.083-4.238 5.78-5.009l10.788-4.623c2.055-.9 5.471-3.853 2.697-8.477-.693-1.155-3.853-3.313-11.559-1.155l-6.935 1.155v-8.09l7.706-23.889c2.312-5.779-6.165-9.247-8.862-4.238L35.52 37.74 33.98 6.147c-.771-5.009-9.248-6.165-10.404.385V36.97l-.77-6.165m-11.174 3.083V31.96c.386-10.403 11.174-8.09 11.174-2.312v1.156m-11.174 3.083c0-3.853-8.09-7.32-9.632 0v13.87c.385 5.394 9.632 5.486 9.632.554m0-14.424v14.424m0 0c1.541 4.623 8.862 5.61 10.403-.554l.77-16.953" stroke="#353535" stroke-width="3" stroke-linecap="round" stroke-linejoin="round"/></svg>
